X: 6
T: The Tolka
R: polka
M: 2/4
L: 1/8
K: Ador
A>B cg | de cA | B/c/B/A/ Gd | AB GE |
A>B cg | de cA | B/c/B/A/ Gd | BA A2 ||
d>e fa | ga fd | g/e/d/c/ Bd/c/ | B/A/G B/A/G/B/ |
A>B cg | de cA | B/c/B/A/ Gd | BA A2 ||


Tune 1251	Setting 14563

